Obsidian/places/16/folder-activities.svg

<svg viewBox="0 0 16 16" xmlns="http://www.w3.org/2000/svg"><path d="m5 2c-.5522847 0-1 .4477153-1 1s.4477153 1 1 1 1-.4477153 1-1-.4477153-1-1-1zm5 0-1 1 3 3-3 3 1 1 4-4zm-6.5 4c-.8284271 0-1.5.6715729-1.5 1.5s.6715729 1.5 1.5 1.5 1.5-.6715729 1.5-1.5-.6715729-1.5-1.5-1.5zm3 5c-.8284271 0-1.5.671573-1.5 1.5s.6715729 1.5 1.5 1.5 1.5-.671573 1.5-1.5-.6715729-1.5-1.5-1.5z" fill="#f2f2f2"/></svg>

<svg xmlns="http://www.w3.org/2000/svg" viewBox="0 0 16 16">
  <defs id="defs3051">
    <style type="text/css" id="current-color-scheme">
      .ColorScheme-Text {
        color:#f2f2f2;
      }
      </style>
  </defs>
    <path 
        style="fill:currentColor;fill-opacity:1;stroke:none" 
        d="M 5 2 C 4.4477153 2 4 2.4477153 4 3 C 4 3.5522847 4.4477153 4 5 4 C 5.5522847 4 6 3.5522847 6 3 C 6 2.4477153 5.5522847 2 5 2 z M 10 2 L 9 3 L 12 6 L 9 9 L 10 10 L 14 6 L 10 2 z M 3.5 6 C 2.6715729 6 2 6.6715729 2 7.5 C 2 8.3284271 2.6715729 9 3.5 9 C 4.3284271 9 5 8.3284271 5 7.5 C 5 6.6715729 4.3284271 6 3.5 6 z M 6.5 11 C 5.6715729 11 5 11.671573 5 12.5 C 5 13.328427 5.6715729 14 6.5 14 C 7.3284271 14 8 13.328427 8 12.5 C 8 11.671573 7.3284271 11 6.5 11 z " 
        id="path2994" 
        class="ColorScheme-Text"/>
</svg>
